src/components/Icon/utils/svgsOptimized/underline.svg

<svg width="24" height="24" viewBox="0 0 24 24"  xmlns="http://www.w3.org/2000/svg">
<path d="M14.1 6.34999C14.1 6.18999 14.23 6.04999 14.4 6.04999H15.3C15.46 6.04999 15.6 6.17999 15.6 6.34999V13.2C15.6 15.23 13.91 16.88 11.86 16.8C9.91002 16.72 8.40002 15.06 8.40002 13.11V6.34999C8.40002 6.18999 8.54002 6.04999 8.70002 6.04999H9.60002C9.76002 6.04999 9.90002 6.17999 9.90002 6.34999V13.01C9.90002 14.4 10.51 15.41 12 15.41C13.49 15.41 14.1 14.43 14.1 13.01V6.34999Z" />
<path d="M8.40002 18.35C8.40002 18.1843 8.53434 18.05 8.70002 18.05H15.3C15.4657 18.05 15.6 18.1843 15.6 18.35V18.95C15.6 19.1157 15.4657 19.25 15.3 19.25H8.70002C8.53434 19.25 8.40002 19.1157 8.40002 18.95V18.35Z" />
</svg>

<?xml version="1.0" encoding="utf-8"?><svg width="24" height="24" xmlns="http://www.w3.org/2000/svg" viewBox="0 0 24 24"><path d="M14.1 6.35c0-.16.13-.3.3-.3h.9c.16 0 .3.13.3.3v6.85c0 2.03-1.69 3.68-3.74 3.6-1.95-.08-3.46-1.74-3.46-3.69V6.35c0-.16.14-.3.3-.3h.9c.16 0 .3.13.3.3v6.66c0 1.39.61 2.4 2.1 2.4 1.49 0 2.1-.98 2.1-2.4V6.35Zm-5.7 12a.3.3 0 0 1 .3-.3h6.6a.3.3 0 0 1 .3.3v.6a.3.3 0 0 1-.3.3H8.7a.3.3 0 0 1-.3-.3v-.6Z"/></svg>
